svg/u1f17e.svg

<svg viewBox="0 0 128 128" xmlns="http://www.w3.org/2000/svg">
  <g>
    <path d="M116,4H12c-4.42,0-8,3.58-8,8v104c0,4.42,3.58,8,8,8h104c4.42,0,8-3.58,8-8V12 C124,7.58,120.42,4,116,4z" fill="#CC3333"/>
    <path d="M109.7,4H11.5C7.37,4.03,4.03,7.37,4,11.5v97.9c-0.01,4.14,3.34,7.49,7.48,7.5c0.01,0,0.01,0,0.02,0 h98.1c4.14,0.01,7.49-3.34,7.5-7.48c0-0.01,0-0.01,0-0.02V11.5c0.09-4.05-3.13-7.41-7.18-7.5C109.85,4,109.77,4,109.7,4z" fill="#F44336"/>
    <path d="M39.7,12.9c0-2.3-1.6-3-10.8-2.7c-7.7,0.3-11.5,1.2-13.8,4s-2.9,8.5-3,15.3c0,4.8,0,9.3,2.5,9.3 c3.4,0,3.4-7.9,6.2-12.3C26.2,17.8,39.7,15.9,39.7,12.9z" fill="#FF8A80"/>
    <path d="M102.8,66.4c0,9.2-1.6,17.2-4.8,24.1c-2.86,6.53-7.6,12.06-13.6,15.9 c-6.09,3.78-13.14,5.72-20.3,5.6c-7.14,0.16-14.16-1.79-20.2-5.6c-5.99-3.85-10.74-9.33-13.7-15.8c-3.37-7.44-5.04-15.53-4.9-23.7 v-5.3c0-9.1,1.6-17.2,4.8-24.1c2.87-6.58,7.64-12.15,13.7-16c6.06-3.75,13.08-5.66,20.2-5.5c7.12-0.16,14.14,1.75,20.2,5.5 c6,3.8,10.73,9.3,13.6,15.8c3.2,6.9,4.8,14.9,4.9,24L102.8,66.4z M86.5,61.6c0-10.4-2-18.3-5.9-23.8s-9.5-8.3-16.7-8.3 c-6.53-0.2-12.72,2.88-16.5,8.2c-4,5.4-6,13.3-6.1,23.3v5.4c0,10.3,2,18.2,6,23.8s9.5,8.4,16.6,8.4s12.7-2.7,16.6-8.2 s5.8-13.5,5.8-24L86.5,61.6z" fill="#FAFAFA"/>
  </g>
</svg>

<svg viewBox="0 0 128 128" xmlns="http://www.w3.org/2000/svg">
  <defs/>
  <path d="M116,4 L12,4 C7.58,4 4,7.58 4,12 L4,116 C4,120.42 7.58,124 12,124 L116,124 C120.42,124 124,120.42 124,116 L124,12 C124,7.58 120.42,4 116,4 Z" fill="#CC3333"/>
  <path d="M109.7,4 L11.5,4 C7.37,4.03 4.03,7.37 4,11.5 L4,109.4 C3.99,113.54 7.34,116.89 11.48,116.9 C11.49,116.9 11.49,116.9 11.5,116.9 L109.6,116.9 C113.74,116.91 117.09,113.56 117.1,109.42 C117.1,109.41 117.1,109.41 117.1,109.4 L117.1,11.5 C117.19,7.45 113.97,4.09 109.92,4 C109.85,4 109.77,4 109.7,4 Z" fill="#F44336"/>
  <path d="M39.7,12.9 C39.7,10.6 38.1,9.9 28.9,10.2 C21.2,10.5 17.4,11.4 15.1,14.2 C12.8,17 12.2,22.7 12.1,29.5 C12.1,34.3 12.1,38.8 14.6,38.8 C18,38.8 18,30.9 20.8,26.5 C26.2,17.8 39.7,15.9 39.7,12.9 Z" fill="#FF8A80"/>
  <path d="M102.8,66.4 C102.8,75.6 101.2,83.6 98,90.5 C95.14,97.03 90.4,102.56 84.4,106.4 C78.31,110.18 71.26,112.12 64.1,112 C56.96,112.16 49.94,110.21 43.9,106.4 C37.91,102.55 33.16,97.07 30.2,90.6 C26.83,83.16 25.16,75.07 25.3,66.9 L25.3,61.6 C25.3,52.5 26.9,44.4 30.1,37.5 C32.97,30.92 37.74,25.35 43.8,21.5 C49.86,17.75 56.88,15.84 64,16 C71.12,15.84 78.14,17.75 84.2,21.5 C90.2,25.3 94.93,30.8 97.8,37.3 C101,44.2 102.6,52.2 102.7,61.3 L102.8,66.4 Z M86.5,61.6 C86.5,51.2 84.5,43.3 80.6,37.8 C76.7,32.3 71.1,29.5 63.9,29.5 C57.37,29.3 51.18,32.38 47.4,37.7 C43.4,43.1 41.4,51 41.3,61 L41.3,66.4 C41.3,76.7 43.3,84.6 47.3,90.2 C51.3,95.8 56.8,98.6 63.9,98.6 C71,98.6 76.6,95.9 80.5,90.4 C84.4,84.9 86.3,76.9 86.3,66.4 L86.5,61.6 Z" fill="#FAFAFA"/>
</svg>
